X: 113
T:Lord McDonalds Reel
M:4/4
L:1/8
K:G
G |:DGBG dG (3BBG|c2 Bc AGEG|DG G2 AGGE|DEDC B,G, G,2|!
DGBG dGBG|c2 Bc AGEG|BcBA GBGE|DEGA BG G2:|!
|:Bd (3ddd dBGB|defg aged|Bd (3ddd dBGB|ABcA BG G2|!
Bd (3ddd dBGB|defg aged|Bd (3ddd g3e|dBAc BGGB :|!
|:dg (3bag agbg|dgbg ageg|dg (3bag agbg|dedc BGGB |!
dg (3bag agbg|dgbg ageg|(3bag (3agf gfec|dega bg g2:||
